X: 1
T: Pogonip #3
C: Paul Machlis
R: jig
Z: 2012 John Chambers <jc:trillian.mit.edu>
M: 6/8
L: 1/8
K: Amix
|:\
"A"A2A cde | "A"cAc "Em"BGE | "A"cde aeg | "D"fag fed |\
"A"cAc a2e | fed cBA | "D"fdf "G"g3 | "D"fag fed :|
|:\
"A"cAA AaA | "A"gAf ecA | "A"cAA aAg | "A"fed cBA |\
"A"cAA AaA | "A"gAf ecA | "D"fdf "G"g3 | "D"fag fed :|
